X: 18
T: Bone chere
N: Derived from Bus3010-Bone_chere.krn
C: Antoine Busnoys
%%abc-version 2.0
%%abcx-abcm2ps-target-version 5.9.1 (29 Sep 2008)
%%abc-creator hum2abc beta
%%abcx-conversion-date 2019/02/16 20:26:06
%%abc-edited-by Jesse Rodin
%%abc-edited-by Chris Gage 04-02-2015
%%abcx-initial-encoding-date 2015/05/01/
%%humdrum-veritas 1627806498
%%humdrum-veritas-data 826097108
%%linebreak <none>
%%barnumbers 0
L: 1/4
M: 2/1
Q: 1/2=120
V: 1 clef=treble
V: 2 clef=treble-8
V: 3 clef=bass
K: F
[V:1] z8 | 
[V:2] G6FE | 
[V:3] z8 | 
[V:1] z8 | 
[V:2] F4G2B2- | 
[V:3] z4G,4- | 
[V:1] z8 | 
[V:2] B2AGA4 | 
[V:3] G,2F,E,F,4 | 
[V:1] G6FE | 
[V:2] G8 | 
[V:3] G,2B,4A,G, | 
[V:1] F4G2B2- | 
[V:2] D4_E4 | 
[V:3] A,4G,4- | 
[V:1] B2AGA4 | 
[V:2] D8 | 
[V:3] G,4F,4 | 
[V:1] G6FE | 
[V:2] _E4C4 | 
[V:3] G,8- | 
[V:1] D4_E4 | 
[V:2] z2G4A2 | 
[V:3] G,4C,4 | 
[V:1] D8 | 
[V:2] B4B4 | 
[V:3] G,8 | 
[V:1] _E4C4 | 
[V:2] c8 | 
[V:3] z4A,4- | 
[V:1] F6GA | 
[V:2] B8 | 
[V:3] A,2G,2G,4- | 
[V:1] B4A2B2- | 
[V:2] G4F2G2- | 
[V:3] G,2D,3C,B,,A,, | 
[V:1] B2G3^FFE | 
[V:2] G2B2A4 | 
[V:3] G,,4D,4 | 
[V:1] G8 | 
[V:2] G8 | 
[V:3] _E,8 | 
[V:1] A8 | 
[V:2] z4d4 | 
[V:3] D,8 | 
[V:1] z4G4 | 
[V:2] _e8 | 
[V:3] C,8 | 
[V:1] B4B4 | 
[V:2] d8 | 
[V:3] G,8 | 
[V:1] z4G4 | 
[V:2] _e8 | 
[V:3] C,8 | 
[V:1] B4B4 | 
[V:2] d8 | 
[V:3] G,8 | 
[V:1] A6F2 | 
[V:2] d4d4 | 
[V:3] D,8- | 
[V:1] F8 | 
[V:2] d6cB | 
[V:3] D,8 | 
[V:1] z4F4 | 
[V:2] A4A4 | 
[V:3] D,8 | 
[V:1] G2B2A4 | 
[V:2] z4F4 | 
[V:3] G,,4D,4 | 
[V:1] D4z2F2- | 
[V:2] G2B2A4 | 
[V:3] B,,3C,D,3E, | 
[V:1] FGA2B2A2- | 
[V:2] D4z2F2- | 
[V:3] F,4G,2A,2 | 
[V:1] AGFED2E2 | 
[V:2] FGA2B2A2- | 
[V:3] D,4z4 | 
[V:1] F2A4G2 | 
[V:2] AGFED2E2 | 
[V:3] D,3E,F,3E, | 
[V:1] F2EDC2E2- | 
[V:2] F2A4G2 | 
[V:3] D,2C,B,,A,,2C,2- | 
[V:1] E2D4^C2 | 
[V:2] A2F2E4 | 
[V:3] C,2D,2E,4 | 
[V:1] D8 | 
[V:2] D8- | 
[V:3] B,,2A,,G,,F,,2B,,2- | 
[V:1] z4A4 | 
[V:2] D8 | 
[V:3] B,,C,D,E,F,2D,2- | 
[V:1] B4c4 | 
[V:2] z4A4 | 
[V:3] D,2G,4F,2 | 
[V:1] B2G4FE | 
[V:2] B4c4 | 
[V:3] G,4C,4 | 
[V:1] D4G4 | 
[V:2] B2G4FE | 
[V:3] G,,6A,,2 | 
[V:1] F2B4AG | 
[V:2] D4G4 | 
[V:3] B,,4G,,4- | 
[V:1] A2B2G4 | 
[V:2] F2B4AG | 
[V:3] G,,4G,,4 | 
[V:1] F4G4 | 
[V:2] A4G4 | 
[V:3] D,4_E,4 | 
[V:1] A4B2AG | 
[V:2] F4G4 | 
[V:3] D,4G,,4 | 
[V:1] F8 | 
[V:2] A4B4- | 
[V:3] D,8 | 
[V:1] G8 | 
[V:2] B4c4 | 
[V:3] _E,8 | 
[V:1] F6B2- | 
[V:2] d4B4 | 
[V:3] D,2B,,4A,,G,, | 
[V:1] B2A2A2G2 | 
[V:2] c8 | 
[V:3] F,,3E,,F,,4 | 
[V:1] B8 | 
[V:2] B8- | 
[V:3] B,,3C,D,2_E,2- | 
[V:1] z4F4 | 
[V:2] B8 | 
[V:3] E,2D,C,B,,4- | 
[V:1] F4F4 | 
[V:2] z4B4 | 
[V:3] B,,4B,,4 | 
[V:1] G4G4 | 
[V:2] B8 | 
[V:3] G,,8 | 
[V:1] F4F4 | 
[V:2] A8 | 
[V:3] D,8 | 
[V:1] G2D2E2D2- | 
[V:2] G8 | 
[V:3] G,,2B,,2C,2G,,2- | 
[V:1] DCB,A,G,4 | 
[V:2] D4E4 | 
[V:3] G,,A,,B,,2C,4 | 
[V:1] z2D4E2 | 
[V:2] F4G4- | 
[V:3] D,2B,,4C,2 | 
[V:1] D2G4F2 | 
[V:2] G4A4 | 
[V:3] G,,4D,4 | 
[V:1] G2B4A2- | 
[V:2] G4c4- | 
[V:3] G,,4F,4- | 
[V:1] AGFED2G2- | 
[V:2] c4B4 | 
[V:3] F,4G,4 | 
[V:1] G2^FEF4 | 
[V:2] A8 | 
[V:3] D,8 | 
[V:1] G8 |]  
[V:2] G8 |]  
[V:3] G,,8 |]  



